icons/cpp.svg

<svg width="16" height="16" viewBox="0 0 16 16" fill="none" xmlns="http://www.w3.org/2000/svg">
<path fill-rule="evenodd" clip-rule="evenodd" d="M8.71 2.13L12.85 4.52C13.0528 4.63594 13.2216 4.80328 13.3392 5.00516C13.4568 5.20705 13.5192 5.43635 13.52 5.67V10.45C13.5189 10.6849 13.4565 10.9155 13.339 11.119C13.2215 11.3224 13.053 11.4917 12.85 11.61L8.71 14C8.50629 14.1176 8.27522 14.1795 8.04 14.1795C7.80478 14.1795 7.5737 14.1176 7.37 14L3.23 11.61C3.02704 11.4917 2.85847 11.3224 2.74097 11.119C2.62346 10.9155 2.56108 10.6849 2.56 10.45V5.67C2.56082 5.43635 2.62318 5.20705 2.7408 5.00516C2.85842 4.80328 3.02715 4.63594 3.23 4.52L7.37 2.13C7.5737 2.01239 7.80478 1.95047 8.04 1.95047C8.27522 1.95047 8.50629 2.01239 8.71 2.13ZM9.5 10.7539V9.5V9V8.75H7.5V7.25H9.5V7V6.5V5.2536H11V7.25L13 7.25V8.75L11 8.75V10.75H10.75L10.7539 10.7539H9.5ZM8.5 4.03098C7.81311 3.94498 7.11387 4.03857 6.47138 4.30491C5.74074 4.60779 5.11629 5.12048 4.67696 5.77818C4.23763 6.43588 4.00314 7.20906 4.00314 8C4.00314 8.79094 4.23763 9.56412 4.67696 10.2218C5.11629 10.8795 5.74074 11.3922 6.47138 11.6951C7.11387 11.9614 7.81311 12.055 8.5 11.969V10.7539V9.93432C8.33812 9.97687 8.17022 9.99928 8 10C7.46956 10 6.96086 9.78929 6.58578 9.41421C6.21071 9.03914 6 8.53043 6 8C6 7.46957 6.21071 6.96086 6.58578 6.58579C6.96086 6.21071 7.46956 6 8 6C8.17022 6.00072 8.33812 6.02313 8.5 6.06568V5.2536V4.03098Z" fill="#C47CFC"/>
</svg>

<svg xmlns="http://www.w3.org/2000/svg" width="16" height="16" fill="none"><path fill="#C47CFC" fill-rule="evenodd" d="m8.71 2.13 4.14 2.39a1.33 1.33 0 0 1 .67 1.15v4.78a1.35 1.35 0 0 1-.67 1.16L8.71 14a1.34 1.34 0 0 1-1.34 0l-4.14-2.39a1.35 1.35 0 0 1-.67-1.16V5.67a1.33 1.33 0 0 1 .67-1.15l4.14-2.39a1.34 1.34 0 0 1 1.34 0Zm.79 8.624V8.75h-2v-1.5h2V5.254H11V7.25h2v1.5h-2v2h-.25l.004.004H9.5Zm-1-6.723a4 4 0 1 0 0 7.938V9.934a2 2 0 1 1 0-3.869V4.032Z" clip-rule="evenodd"/></svg>
